src/r/2500-259f_box/2592_shade-medium.svg

<?xml version="1.0" encoding="UTF-8" standalone="no"?>
<svg
   xmlns:dc="http://purl.org/dc/elements/1.1/"
   xmlns:cc="http://creativecommons.org/ns#"
   xmlns:rdf="http://www.w3.org/1999/02/22-rdf-syntax-ns#"
   xmlns:svg="http://www.w3.org/2000/svg"
   xmlns="http://www.w3.org/2000/svg"
   version="1.1"
   width="1024"
   height="2048"
   id="svg3355">
  <defs
     id="defs3357" />
  <metadata
     id="metadata3360">
    <rdf:RDF>
      <cc:Work
         rdf:about="">
        <dc:format>image/svg+xml</dc:format>
        <dc:type
           rdf:resource="http://purl.org/dc/dcmitype/StillImage" />
        <dc:title></dc:title>
      </cc:Work>
    </rdf:RDF>
  </metadata>
  <path
     d="M 128,0 V 128 H 256 V 0 Z M 256,128 V 256 H 384 V 128 Z m 128,0 H 512 V 0 H 384 Z m 128,0 V 256 H 640 V 128 Z m 128,0 H 768 V 0 H 640 Z m 128,0 V 256 H 896 V 128 Z m 128,0 h 128 V 0 H 896 Z m 0,128 v 128 h 128 V 256 Z m 0,128 H 768 v 128 h 128 z m 0,128 v 128 h 128 V 512 Z m 0,128 H 768 v 128 h 128 z m 0,128 v 128 h 128 V 768 Z m 0,128 H 768 v 128 h 128 z m 0,128 v 128 h 128 v -128 z m 0,128 H 768 v 128 h 128 z m 0,128 v 128 h 128 v -128 z m 0,128 H 768 v 128 h 128 z m 0,128 v 128 h 128 v -128 z m 0,128 H 768 v 128 h 128 z m 0,128 v 128 h 128 v -128 z m 0,128 H 768 v 128 h 128 z m -128,0 V 1792 H 640 v 128 z m -128,0 H 512 v 128 h 128 z m -128,0 V 1792 H 384 v 128 z m -128,0 H 256 v 128 h 128 z m -128,0 V 1792 H 128 v 128 z m -128,0 H 0 v 128 h 128 z m 0,-128 V 1664 H 0 v 128 z m 0,-128 H 256 V 1536 H 128 Z m 0,-128 V 1408 H 0 v 128 z m 0,-128 H 256 V 1280 H 128 Z m 0,-128 V 1152 H 0 v 128 z m 0,-128 H 256 V 1024 H 128 Z m 0,-128 V 896 H 0 v 128 z m 0,-128 H 256 V 768 H 128 Z m 0,-128 V 640 H 0 v 128 z m 0,-128 H 256 V 512 H 128 Z m 0,-128 V 384 H 0 v 128 z m 0,-128 H 256 V 256 H 128 Z m 0,-128 V 128 H 0 V 256 Z M 256,384 V 512 H 384 V 384 Z m 128,0 H 512 V 256 H 384 Z m 128,0 V 512 H 640 V 384 Z m 128,0 H 768 V 256 H 640 Z m 0,128 V 640 H 768 V 512 Z m 0,128 H 512 v 128 h 128 z m 0,128 V 896 H 768 V 768 Z m 0,128 H 512 v 128 h 128 z m 0,128 v 128 h 128 v -128 z m 0,128 H 512 v 128 h 128 z m 0,128 v 128 h 128 v -128 z m 0,128 H 512 v 128 h 128 z m 0,128 v 128 h 128 v -128 z m 0,128 H 512 v 128 h 128 z m -128,0 V 1536 H 384 v 128 z m -128,0 H 256 v 128 h 128 z m 0,-128 V 1408 H 256 v 128 z m 0,-128 H 512 V 1280 H 384 Z m 0,-128 V 1152 H 256 v 128 z m 0,-128 H 512 V 1024 H 384 Z m 0,-128 V 896 H 256 v 128 z m 0,-128 H 512 V 768 H 384 Z m 0,-128 V 640 H 256 v 128 z m 0,-128 H 512 V 512 H 384 Z"
     id="path4622"
     style="display:inline;fill:#000000;fill-opacity:1;stroke:none;stroke-width:1" />
</svg>

<?xml version="1.0" encoding="UTF-8" standalone="no"?>
<svg
   xmlns:dc="http://purl.org/dc/elements/1.1/"
   xmlns:cc="http://creativecommons.org/ns#"
   xmlns:rdf="http://www.w3.org/1999/02/22-rdf-syntax-ns#"
   xmlns:svg="http://www.w3.org/2000/svg"
   xmlns="http://www.w3.org/2000/svg"
   id="svg3355"
   height="2048"
   width="1024"
   version="1.1">
  <defs
     id="defs3357" />
  <metadata
     id="metadata3360">
    <rdf:RDF>
      <cc:Work
         rdf:about="">
        <dc:format>image/svg+xml</dc:format>
        <dc:type
           rdf:resource="http://purl.org/dc/dcmitype/StillImage" />
        <dc:title></dc:title>
      </cc:Work>
    </rdf:RDF>
  </metadata>
  <path
     d="M 128 -256 L 128 -128 L 256 -128 L 256 -256 L 128 -256 z M 256 -128 L 256 0 L 384 0 L 384 -128 L 256 -128 z M 384 -128 L 512 -128 L 512 -256 L 384 -256 L 384 -128 z M 512 -128 L 512 0 L 640 0 L 640 -128 L 512 -128 z M 640 -128 L 768 -128 L 768 -256 L 640 -256 L 640 -128 z M 768 -128 L 768 0 L 896 0 L 896 -128 L 768 -128 z M 896 -128 L 1024 -128 L 1024 -256 L 896 -256 L 896 -128 z M 896 0 L 896 128 L 1024 128 L 1024 0 L 896 0 z M 896 128 L 768 128 L 768 256 L 896 256 L 896 128 z M 896 256 L 896 384 L 1024 384 L 1024 256 L 896 256 z M 896 384 L 768 384 L 768 512 L 896 512 L 896 384 z M 896 512 L 896 640 L 1024 640 L 1024 512 L 896 512 z M 896 640 L 768 640 L 768 768 L 896 768 L 896 640 z M 896 768 L 896 896 L 1024 896 L 1024 768 L 896 768 z M 896 896 L 768 896 L 768 1024 L 896 1024 L 896 896 z M 896 1024 L 896 1152 L 1024 1152 L 1024 1024 L 896 1024 z M 896 1152 L 768 1152 L 768 1280 L 896 1280 L 896 1152 z M 896 1280 L 896 1408 L 1024 1408 L 1024 1280 L 896 1280 z M 896 1408 L 768 1408 L 768 1536 L 896 1536 L 896 1408 z M 896 1536 L 896 1664 L 1024 1664 L 1024 1536 L 896 1536 z M 896 1664 L 768 1664 L 768 1792 L 896 1792 L 896 1664 z M 896 1792 L 896 1920 L 1024 1920 L 1024 1792 L 896 1792 z M 896 1920 L 768 1920 L 768 2048 L 896 2048 L 896 1920 z M 768 1920 L 768 1792 L 640 1792 L 640 1920 L 768 1920 z M 640 1920 L 512 1920 L 512 2048 L 640 2048 L 640 1920 z M 512 1920 L 512 1792 L 384 1792 L 384 1920 L 512 1920 z M 384 1920 L 256 1920 L 256 2048 L 384 2048 L 384 1920 z M 256 1920 L 256 1792 L 128 1792 L 128 1920 L 256 1920 z M 128 1920 L 0 1920 L 0 2048 L 128 2048 L 128 1920 z M 128 1792 L 128 1664 L 0 1664 L 0 1792 L 128 1792 z M 128 1664 L 256 1664 L 256 1536 L 128 1536 L 128 1664 z M 128 1536 L 128 1408 L 0 1408 L 0 1536 L 128 1536 z M 128 1408 L 256 1408 L 256 1280 L 128 1280 L 128 1408 z M 128 1280 L 128 1152 L 0 1152 L 0 1280 L 128 1280 z M 128 1152 L 256 1152 L 256 1024 L 128 1024 L 128 1152 z M 128 1024 L 128 896 L 0 896 L 0 1024 L 128 1024 z M 128 896 L 256 896 L 256 768 L 128 768 L 128 896 z M 128 768 L 128 640 L 0 640 L 0 768 L 128 768 z M 128 640 L 256 640 L 256 512 L 128 512 L 128 640 z M 128 512 L 128 384 L 0 384 L 0 512 L 128 512 z M 128 384 L 256 384 L 256 256 L 128 256 L 128 384 z M 128 256 L 128 128 L 0 128 L 0 256 L 128 256 z M 128 128 L 256 128 L 256 0 L 128 0 L 128 128 z M 128 0 L 128 -128 L 0 -128 L 0 0 L 128 0 z M 256 128 L 256 256 L 384 256 L 384 128 L 256 128 z M 384 128 L 512 128 L 512 0 L 384 0 L 384 128 z M 512 128 L 512 256 L 640 256 L 640 128 L 512 128 z M 640 128 L 768 128 L 768 0 L 640 0 L 640 128 z M 640 256 L 640 384 L 768 384 L 768 256 L 640 256 z M 640 384 L 512 384 L 512 512 L 640 512 L 640 384 z M 640 512 L 640 640 L 768 640 L 768 512 L 640 512 z M 640 640 L 512 640 L 512 768 L 640 768 L 640 640 z M 640 768 L 640 896 L 768 896 L 768 768 L 640 768 z M 640 896 L 512 896 L 512 1024 L 640 1024 L 640 896 z M 640 1024 L 640 1152 L 768 1152 L 768 1024 L 640 1024 z M 640 1152 L 512 1152 L 512 1280 L 640 1280 L 640 1152 z M 640 1280 L 640 1408 L 768 1408 L 768 1280 L 640 1280 z M 640 1408 L 512 1408 L 512 1536 L 640 1536 L 640 1408 z M 640 1536 L 640 1664 L 768 1664 L 768 1536 L 640 1536 z M 640 1664 L 512 1664 L 512 1792 L 640 1792 L 640 1664 z M 512 1664 L 512 1536 L 384 1536 L 384 1664 L 512 1664 z M 384 1664 L 256 1664 L 256 1792 L 384 1792 L 384 1664 z M 384 1536 L 384 1408 L 256 1408 L 256 1536 L 384 1536 z M 384 1408 L 512 1408 L 512 1280 L 384 1280 L 384 1408 z M 384 1280 L 384 1152 L 256 1152 L 256 1280 L 384 1280 z M 384 1152 L 512 1152 L 512 1024 L 384 1024 L 384 1152 z M 384 1024 L 384 896 L 256 896 L 256 1024 L 384 1024 z M 384 896 L 512 896 L 512 768 L 384 768 L 384 896 z M 384 768 L 384 640 L 256 640 L 256 768 L 384 768 z M 384 640 L 512 640 L 512 512 L 384 512 L 384 640 z M 384 512 L 384 384 L 256 384 L 256 512 L 384 512 z M 384 384 L 512 384 L 512 256 L 384 256 L 384 384 z "
     style="display:inline;fill:#000000;fill-opacity:1;stroke:none;stroke-width:1"
     id="path4622" />
</svg>
